online-zoo/images/logo-yem-digital.svg

<svg width="97" height="50" viewBox="0 0 97 50" fill="none" xmlns="http://www.w3.org/2000/svg">
<path d="M70.2297 14.8422V21.2595C70.2297 22.6647 69.8294 23.741 69.0289 24.4881C68.2284 25.2441 67.1231 25.6221 65.7132 25.6221C64.9035 25.6221 64.1622 25.5109 63.489 25.2886C62.8158 25.0751 62.2427 24.7682 61.7698 24.368L62.6294 22.767C63.4936 23.4519 64.5033 23.7943 65.6586 23.7943C66.459 23.7943 67.0504 23.5986 67.4325 23.2073C67.8236 22.8071 68.0192 22.1934 68.0192 21.3662V20.7925C67.3824 21.5574 66.4818 21.9399 65.3175 21.9399C64.1076 21.9399 63.1752 21.6063 62.5202 20.9393C61.8743 20.2633 61.5514 19.2938 61.5514 18.0308V14.8422H63.7619V17.8974C63.7619 18.6268 63.9393 19.1782 64.2941 19.5517C64.6489 19.9253 65.1491 20.1121 65.795 20.1121C66.4773 20.1121 67.0185 19.9164 67.4188 19.5251C67.819 19.1337 68.0192 18.5422 68.0192 17.7507V14.8422H70.2297ZM80.22 23.3807C79.7651 23.6832 79.192 23.9188 78.5007 24.0878C77.8185 24.2569 77.0907 24.3413 76.3175 24.3413C75.3532 24.3413 74.5345 24.2257 73.8614 23.9944C73.1882 23.7543 72.6788 23.4252 72.3332 23.0072C71.9874 22.5803 71.8146 22.0955 71.8146 21.553C71.8146 21.0549 71.9556 20.6146 72.2376 20.2322C72.5196 19.8497 72.9062 19.5651 73.3975 19.3783C73.0245 19.1826 72.7334 18.9158 72.5242 18.5778C72.324 18.2399 72.224 17.8618 72.224 17.4438C72.224 16.9368 72.3831 16.4743 72.7016 16.0563C73.0199 15.6383 73.502 15.3048 74.1479 15.0557C74.7938 14.8066 75.5852 14.6821 76.5222 14.6821C77.1407 14.6821 77.7456 14.7444 78.337 14.8689C78.9282 14.9846 79.4422 15.1447 79.8789 15.3492L79.2648 17.0035C78.4279 16.6211 77.541 16.4299 76.6041 16.4299C75.8945 16.4299 75.3577 16.5366 74.9939 16.75C74.6392 16.9546 74.4618 17.2348 74.4618 17.5906C74.4618 17.9197 74.58 18.1732 74.8166 18.351C75.0622 18.52 75.4306 18.6045 75.9218 18.6045H78.528V20.3122H75.7854C75.2304 20.3122 74.8029 20.4056 74.5027 20.5924C74.2025 20.7792 74.0524 21.0504 74.0524 21.4062C74.0524 21.7798 74.2435 22.0733 74.6255 22.2867C75.0166 22.4913 75.6125 22.5936 76.413 22.5936C76.977 22.5936 77.541 22.5225 78.105 22.3801C78.669 22.229 79.1466 22.0199 79.5377 21.7531L80.22 23.3807ZM92.4187 14.6821C93.5469 14.6821 94.4245 15.0067 95.0522 15.6561C95.6798 16.2964 95.9937 17.2259 95.9937 18.4444V24.1812H93.7832V18.5111C93.7832 17.853 93.6058 17.3593 93.251 17.0302C92.9056 16.6923 92.446 16.5232 91.8729 16.5232C91.2452 16.5232 90.7446 16.7011 90.3719 17.0569C89.9992 17.4038 89.8125 17.933 89.8125 18.6445V24.1812H87.602V18.5111C87.602 17.853 87.4382 17.3593 87.1107 17.0302C86.7833 16.6923 86.3372 16.5232 85.7735 16.5232C85.1548 16.5232 84.6591 16.7011 84.2861 17.0569C83.9131 17.4038 83.7266 17.933 83.7266 18.6445V24.1812H81.5161V14.8422H83.6584V15.9896C83.9495 15.5716 84.3361 15.2514 84.8182 15.029C85.3002 14.7978 85.8554 14.6821 86.4831 14.6821C87.138 14.6821 87.7111 14.8022 88.2024 15.0423C88.6936 15.2736 89.0714 15.6116 89.3349 16.0563C89.6624 15.6116 90.0896 15.2736 90.6175 15.0423C91.1539 14.8022 91.7543 14.6821 92.4187 14.6821ZM61.4184 28.0169H64.6727C65.4505 28.0169 66.1362 28.1636 66.7297 28.4571C67.3301 28.744 67.794 29.1509 68.1215 29.6779C68.4558 30.2049 68.623 30.8186 68.623 31.519C68.623 32.2194 68.4558 32.8331 68.1215 33.3601C67.794 33.8871 67.3301 34.2974 66.7297 34.5909C66.1362 34.8777 65.4505 35.0211 64.6727 35.0211H61.4184V28.0169ZM64.5909 33.6903C65.3072 33.6903 65.8769 33.4969 66.2999 33.11C66.7297 32.7164 66.9446 32.1861 66.9446 31.519C66.9446 30.8519 66.7297 30.325 66.2999 29.938C65.8769 29.5445 65.3072 29.3477 64.5909 29.3477H63.0763V33.6903H64.5909ZM69.7606 29.6379H71.3571V35.0211H69.7606V29.6379ZM70.5589 28.8874C70.2655 28.8874 70.0267 28.804 69.8425 28.6373C69.6583 28.4705 69.5662 28.2637 69.5662 28.0169C69.5662 27.7701 69.6583 27.5633 69.8425 27.3965C70.0267 27.2297 70.2655 27.1464 70.5589 27.1464C70.8522 27.1464 71.091 27.2264 71.2752 27.3865C71.4594 27.5466 71.5515 27.7467 71.5515 27.9869C71.5515 28.247 71.4594 28.4638 71.2752 28.6373C71.091 28.804 70.8522 28.8874 70.5589 28.8874ZM78.5185 29.6379V34.1206C78.5185 35.1079 78.2559 35.8416 77.7305 36.3219C77.2052 36.8022 76.4377 37.0424 75.4279 37.0424C74.8958 37.0424 74.3909 36.979 73.9133 36.8522C73.4358 36.7255 73.0401 36.5421 72.7262 36.3019L73.3607 35.1812C73.5927 35.368 73.886 35.5148 74.2408 35.6215C74.5956 35.7349 74.9504 35.7916 75.3051 35.7916C75.8578 35.7916 76.2637 35.6682 76.523 35.4214C76.789 35.1812 76.9221 34.8143 76.9221 34.3207V34.0906C76.5059 34.5375 75.926 34.761 75.1823 34.761C74.6775 34.761 74.2135 34.6542 73.7905 34.4408C73.3744 34.2206 73.0435 33.9138 72.7979 33.5202C72.5522 33.1267 72.4294 32.673 72.4294 32.1594C72.4294 31.6458 72.5522 31.1921 72.7979 30.7986C73.0435 30.405 73.3744 30.1015 73.7905 29.888C74.2135 29.6679 74.6775 29.5578 75.1823 29.5578C75.9806 29.5578 76.5878 29.8146 77.0039 30.3283V29.6379H78.5185ZM75.4996 33.4802C75.9226 33.4802 76.2671 33.3601 76.5332 33.12C76.8061 32.8732 76.9425 32.553 76.9425 32.1594C76.9425 31.7658 76.8061 31.449 76.5332 31.2088C76.2671 30.962 75.9226 30.8386 75.4996 30.8386C75.0766 30.8386 74.7286 30.962 74.4557 31.2088C74.1828 31.449 74.0464 31.7658 74.0464 32.1594C74.0464 32.553 74.1828 32.8732 74.4557 33.12C74.7286 33.3601 75.0766 33.4802 75.4996 33.4802ZM80.0044 29.6379H81.6009V35.0211H80.0044V29.6379ZM80.8026 28.8874C80.5093 28.8874 80.2705 28.804 80.0863 28.6373C79.9021 28.4705 79.81 28.2637 79.81 28.0169C79.81 27.7701 79.9021 27.5633 80.0863 27.3965C80.2705 27.2297 80.5093 27.1464 80.8026 27.1464C81.096 27.1464 81.3348 27.2264 81.519 27.3865C81.7032 27.5466 81.7953 27.7467 81.7953 27.9869C81.7953 28.247 81.7032 28.4638 81.519 28.6373C81.3348 28.804 81.096 28.8874 80.8026 28.8874ZM86.3986 34.761C86.2417 34.8744 86.0473 34.9611 85.8153 35.0211C85.5902 35.0745 85.3548 35.1012 85.1088 35.1012C84.4471 35.1012 83.9388 34.9377 83.584 34.6109C83.2292 34.284 83.0519 33.8037 83.0519 33.17V28.4471H84.6483V29.7579H86.0098V30.9587H84.6483V33.15C84.6483 33.3768 84.7063 33.5536 84.8223 33.6803C84.9383 33.8004 85.1054 33.8604 85.3241 33.8604C85.5697 33.8604 85.788 33.7937 85.9791 33.6603L86.3986 34.761ZM92.718 29.6379V35.0211H91.1932V34.4008C90.7975 34.8677 90.2244 35.1012 89.4739 35.1012C88.9554 35.1012 88.4846 34.9878 88.0616 34.761C87.6455 34.5342 87.318 34.2106 87.0792 33.7904C86.8404 33.3701 86.721 32.8832 86.721 32.3295C86.721 31.7758 86.8404 31.2889 87.0792 30.8686C87.318 30.4484 87.6455 30.1248 88.0616 29.898C88.4846 29.6712 88.9554 29.5578 89.4739 29.5578C90.1766 29.5578 90.7258 29.7746 91.1215 30.2082V29.6379H92.718ZM89.7502 33.8204C90.1527 33.8204 90.487 33.687 90.7531 33.4202C91.0192 33.1467 91.1522 32.7831 91.1522 32.3295C91.1522 31.8759 91.0192 31.5157 90.7531 31.2488C90.487 30.9753 90.1527 30.8386 89.7502 30.8386C89.3409 30.8386 89.0031 30.9753 88.7371 31.2488C88.471 31.5157 88.3379 31.8759 88.3379 32.3295C88.3379 32.7831 88.471 33.1467 88.7371 33.4202C89.0031 33.687 89.3409 33.8204 89.7502 33.8204ZM96.1711 35.1012C95.5502 35.1012 95.0658 34.9411 94.7179 34.6209C94.3699 34.294 94.1959 33.8337 94.1959 33.2401V27.5966H95.7924V33.15C95.7924 33.3768 95.8504 33.5536 95.9664 33.6803C96.0892 33.8004 96.2598 33.8604 96.4781 33.8604C96.5599 33.8604 96.6418 33.8504 96.7237 33.8304C96.8124 33.8104 96.8806 33.7871 96.9284 33.7604L97 34.9711C96.7339 35.0578 96.4576 35.1012 96.1711 35.1012Z" fill="black"/>
<path d="M15.0716 13.8267C15.1065 13.8684 15.1374 13.9025 15.1723 13.9442C15.3817 14.1906 15.6065 14.4597 15.8507 14.7478C15.9709 14.8918 16.0988 15.0396 16.2267 15.1912C16.8741 15.953 17.6068 16.8172 18.3781 17.7192C18.6844 18.0793 18.9984 18.4469 19.3124 18.8146C19.6264 19.1823 19.9443 19.5537 20.2583 19.9213C20.2776 19.9441 20.297 19.9668 20.3164 19.9895C20.4598 20.1563 20.5994 20.3231 20.7427 20.4861C20.766 20.5126 20.7893 20.5429 20.8164 20.5695C20.9288 20.6983 21.0374 20.8272 21.146 20.956C21.2157 21.0394 21.2855 21.119 21.3552 21.2024C21.3747 21.2252 21.394 21.2479 21.4134 21.2706C21.456 21.3237 21.5026 21.3729 21.5452 21.4261C21.5995 21.4904 21.6537 21.5549 21.7081 21.6193C21.7312 21.6497 21.7585 21.6762 21.7816 21.7065C21.8476 21.7823 21.9135 21.8619 21.9794 21.9377C22.0259 21.9907 22.0685 22.0439 22.115 22.0969C22.1693 22.1613 22.2236 22.2258 22.2779 22.2902C22.3244 22.347 22.3748 22.4002 22.4213 22.4569C22.4445 22.4835 22.4678 22.5138 22.4949 22.5403C22.5686 22.6275 22.6422 22.7147 22.7159 22.7981C22.7392 22.8246 22.7624 22.8512 22.7857 22.8777C22.8283 22.9307 22.8748 22.98 22.9174 23.0293C22.964 23.0823 23.0066 23.1354 23.0531 23.1885C23.0764 23.215 23.0958 23.2377 23.119 23.2643C23.3904 23.5789 23.6424 23.8783 23.8827 24.155C23.8943 24.1663 23.9059 24.1815 23.9176 24.1929C23.9912 24.2763 24.0571 24.3558 24.1269 24.4355C24.1657 24.4809 24.2044 24.5264 24.2393 24.5681C24.2548 24.5871 24.2743 24.6098 24.2897 24.6288C24.406 24.7614 24.5107 24.8865 24.6154 25.0077C24.7433 25.1556 24.8635 25.2958 24.9681 25.4171C24.9991 25.455 25.0263 25.4854 25.0534 25.5195L25.0572 25.5232C25.1697 25.6559 25.2704 25.7734 25.3519 25.8681C25.3519 25.8681 25.3519 25.8681 25.3557 25.8719C25.3945 25.9174 25.4333 25.9591 25.4643 25.997C25.472 26.0046 25.4798 26.0083 25.4876 26.0159C25.5302 26.0463 25.6 26.05 25.6426 26.0159C25.6504 26.0083 25.6581 26.0046 25.6659 25.997C25.693 25.9667 25.724 25.9288 25.7589 25.8909C25.7821 25.8605 25.8093 25.8302 25.8364 25.7999C25.8984 25.7279 25.9682 25.6483 26.0419 25.5612C26.069 25.5308 26.0923 25.5043 26.1156 25.4739C26.1232 25.4663 26.1272 25.4588 26.1349 25.4512C26.1736 25.4057 26.2163 25.3564 26.2589 25.3072C26.2589 25.3034 26.2629 25.3034 26.2629 25.3034C26.2977 25.2617 26.3365 25.2162 26.3753 25.1708C26.4024 25.1366 26.4334 25.1025 26.4644 25.0646C26.5729 24.9358 26.6893 24.8031 26.8133 24.6553C26.8288 24.6363 26.8443 24.6173 26.8637 24.5984C26.9141 24.5378 26.9722 24.4733 27.0265 24.4089C27.0769 24.3521 27.1273 24.2914 27.1777 24.2308C27.3522 24.0261 27.5382 23.8101 27.732 23.5826C27.7708 23.5409 27.8057 23.4955 27.8444 23.4538C27.8561 23.4386 27.8715 23.4234 27.8832 23.4083C27.9374 23.3439 27.9956 23.2794 28.0498 23.2112C28.108 23.143 28.1662 23.0747 28.2282 23.0028C28.263 22.9611 28.2979 22.9231 28.3328 22.8814C28.3483 22.8625 28.3638 22.8473 28.3794 22.8284C28.4607 22.7299 28.546 22.6313 28.6313 22.5327C28.6546 22.5062 28.6739 22.4835 28.6972 22.4569C28.7243 22.4267 28.7515 22.3963 28.7747 22.366C28.9841 22.1234 29.1973 21.8733 29.4143 21.6155C29.4647 21.5549 29.5191 21.4943 29.5694 21.4337C29.5771 21.4261 29.5849 21.4146 29.5927 21.4071C29.6586 21.3275 29.7284 21.2479 29.7981 21.1683C29.8563 21.1039 29.9105 21.0357 29.9687 20.9712C30.0772 20.8461 30.1858 20.7173 30.2944 20.5884C30.3253 20.5505 30.3564 20.5126 30.3912 20.4747C30.5308 20.3117 30.6704 20.1487 30.8099 19.9858C30.8293 19.9668 30.8448 19.9441 30.8641 19.9252C31.1781 19.5575 31.4921 19.186 31.81 18.8184C32.124 18.4508 32.438 18.0831 32.7442 17.7231C33.5118 16.8209 34.2483 15.9568 34.8956 15.195C35.0236 15.0434 35.1515 14.8955 35.2717 14.7515C35.5159 14.4635 35.7407 14.1943 35.9501 13.948C35.985 13.9063 36.0121 13.8722 36.0469 13.8343C33.2791 11.3707 29.6004 9.86597 25.5651 9.86597C21.518 9.86597 17.8393 11.3669 15.0716 13.8267Z" fill="black"/>
<path d="M30.0302 32.3569C29.8092 32.1598 29.4604 32.2167 29.3092 32.4706L26.9446 36.4882L26.3593 37.4775C26.2507 37.6593 26.053 37.7731 25.836 37.7731H25.5568H25.2855H25.2777C25.0607 37.7731 24.8591 37.6593 24.7505 37.4736L24.7467 37.4699L21.8005 32.463C21.6533 32.2091 21.3005 32.156 21.0796 32.3494L18.8816 34.2672L15.827 36.9355C18.4901 39.0238 21.8704 40.2746 25.5529 40.2746C29.2355 40.2746 32.6158 39.0238 35.2828 36.9316L34.1083 35.9045L30.0302 32.3569Z" fill="black"/>
<path d="M13.401 23.6584C12.6877 22.4872 11.8504 21.1114 11.1449 19.9478C11.0945 19.8644 11.0441 19.781 10.9937 19.7014C10.3463 21.3729 9.98975 23.1846 9.98975 25.0759C9.98975 27.1453 10.4122 29.1125 11.1798 30.909L11.7729 30.2003L14.9593 26.3911C14.9632 26.3873 14.9903 26.357 15.0252 26.3115C15.0214 26.3078 15.0174 26.3039 15.0136 26.2963C14.9166 26.1486 14.2421 25.0418 13.401 23.6584Z" fill="black"/>
<path d="M25.5845 0C11.4548 0 0 11.1924 0 25C0 38.8076 11.4548 50 25.5845 50C39.7141 50 51.1689 38.8076 51.1689 25C51.1689 11.1924 39.7141 0 25.5845 0ZM45.5868 38.1822H45.5752H36.7486C36.737 38.1822 36.7215 38.1785 36.7099 38.1747C36.7059 38.1785 36.7059 38.1785 36.7021 38.1822L36.6982 38.1785C33.6746 40.6345 29.7904 42.1126 25.5534 42.1126C21.3165 42.1126 17.4323 40.6345 14.4126 38.1785H14.4087C14.4048 38.1747 14.4048 38.1747 14.401 38.1709C14.3893 38.1747 14.3777 38.1785 14.3622 38.1785H5.53555H5.52392C5.34948 38.1785 5.25645 37.9814 5.36498 37.8525L9.85002 32.4894C8.73752 30.2456 8.11338 27.7289 8.11338 25.0682C8.11338 15.6572 15.9205 8.02759 25.5534 8.02759C35.1864 8.02759 42.9935 15.6572 42.9935 25.0682C42.9935 27.7252 42.3694 30.2418 41.2607 32.4856L42.9625 34.5172L45.7458 37.845L45.7535 37.8525C45.8544 37.9851 45.7613 38.1822 45.5868 38.1822Z" fill="black"/>
<path d="M39.9694 19.9439C39.26 21.1075 38.4266 22.4833 37.7134 23.6545C36.8683 25.0416 36.1977 26.1447 36.1046 26.2962C36.1008 26.3 36.0969 26.3038 36.093 26.3076L36.1511 26.3796C36.155 26.3834 36.155 26.3872 36.1589 26.391L39.9307 30.9013C40.6943 29.1048 41.1169 27.1377 41.1169 25.072C41.1169 23.1807 40.7602 21.3728 40.1167 19.7051C40.0664 19.7847 40.0198 19.8643 39.9694 19.9439Z" fill="black"/>
</svg>

<svg width="97" height="50" fill="none" xmlns="http://www.w3.org/2000/svg"><path d="M70.23 14.842v6.417c0 1.406-.4 2.482-1.201 3.23-.8.755-1.906 1.133-3.316 1.133a7.06 7.06 0 01-2.224-.333c-.673-.214-1.246-.52-1.72-.921l.86-1.601c.865.685 1.874 1.027 3.03 1.027.8 0 1.391-.195 1.773-.587.392-.4.587-1.014.587-1.84v-.575c-.637.765-1.537 1.148-2.702 1.148-1.21 0-2.142-.334-2.797-1-.646-.677-.969-1.646-.969-2.91v-3.188h2.21v3.055c0 .73.178 1.281.533 1.655.355.373.855.56 1.501.56.682 0 1.224-.196 1.624-.587.4-.391.6-.983.6-1.774v-2.909h2.21zm9.99 8.539c-.455.302-1.028.538-1.72.707a9.05 9.05 0 01-2.183.253c-.964 0-1.782-.115-2.456-.347-.673-.24-1.182-.569-1.528-.987a2.248 2.248 0 01-.518-1.454c0-.498.14-.938.423-1.32.282-.383.668-.668 1.16-.855a2.21 2.21 0 01-.874-.8c-.2-.338-.3-.716-.3-1.134 0-.507.16-.97.478-1.388.318-.418.8-.751 1.446-1 .646-.25 1.437-.374 2.374-.374.619 0 1.224.062 1.815.187a6.654 6.654 0 011.542.48l-.614 1.654a6.327 6.327 0 00-2.66-.573c-.71 0-1.247.107-1.611.32-.355.205-.532.485-.532.84 0 .33.118.583.355.761.245.169.614.254 1.105.254h2.606v1.707h-2.743c-.555 0-.982.094-1.282.28a.902.902 0 00-.45.814c0 .374.19.667.573.88.39.205.986.308 1.787.308.564 0 1.128-.072 1.692-.214.564-.151 1.042-.36 1.433-.627l.682 1.628zm12.199-8.699c1.128 0 2.005.325 2.633.974.628.64.942 1.57.942 2.788v5.737h-2.21v-5.67c0-.658-.178-1.152-.533-1.48-.345-.339-.805-.508-1.378-.508-.628 0-1.128.178-1.501.534-.373.347-.56.876-.56 1.588v5.536h-2.21v-5.67c0-.658-.164-1.152-.491-1.48-.328-.339-.774-.508-1.338-.508-.618 0-1.114.178-1.487.534-.373.347-.56.876-.56 1.588v5.536h-2.21v-9.339h2.142v1.148a2.825 2.825 0 011.16-.961c.482-.231 1.037-.347 1.665-.347.655 0 1.228.12 1.72.36.49.232.868.57 1.132 1.014a3.11 3.11 0 011.283-1.014c.536-.24 1.136-.36 1.8-.36zm-31 13.335h3.254c.778 0 1.463.147 2.057.44.6.287 1.064.694 1.391 1.22.335.528.502 1.142.502 1.842 0 .7-.167 1.314-.502 1.841a3.3 3.3 0 01-1.391 1.23c-.594.288-1.28.431-2.057.431h-3.255v-7.004zm3.172 5.673c.716 0 1.286-.193 1.709-.58.43-.394.645-.924.645-1.591 0-.667-.215-1.194-.645-1.581-.423-.393-.993-.59-1.71-.59h-1.514v4.342h1.515zm5.17-4.052h1.596v5.383h-1.596v-5.383zm.798-.75c-.293 0-.532-.084-.716-.25a.803.803 0 01-.277-.621c0-.247.092-.454.276-.62.185-.167.424-.25.717-.25s.532.08.716.24c.184.16.276.36.276.6 0 .26-.092.477-.276.65-.184.167-.423.25-.716.25zm7.96.75v4.483c0 .987-.263 1.72-.788 2.2-.526.481-1.293.721-2.303.721a5.88 5.88 0 01-1.515-.19c-.477-.127-.873-.31-1.187-.55l.635-1.12c.232.186.525.333.88.44.355.113.71.17 1.064.17.553 0 .959-.124 1.218-.37.266-.24.4-.608.4-1.101v-.23c-.417.447-.997.67-1.74.67-.506 0-.97-.107-1.393-.32a2.559 2.559 0 01-.992-.92 2.516 2.516 0 01-.369-1.362c0-.513.123-.967.369-1.36.245-.394.576-.697.992-.911a2.97 2.97 0 011.392-.33c.799 0 1.406.257 1.822.77v-.69h1.514zm-3.02 3.842c.424 0 .768-.12 1.034-.36.273-.247.41-.567.41-.96 0-.394-.137-.711-.41-.951-.266-.247-.61-.37-1.033-.37-.423 0-.771.123-1.044.37-.273.24-.41.557-.41.95 0 .394.137.714.41.961.273.24.62.36 1.044.36zm4.505-3.842h1.597v5.383h-1.597v-5.383zm.799-.75c-.294 0-.532-.084-.717-.25a.803.803 0 01-.276-.621c0-.247.092-.454.276-.62.184-.167.423-.25.717-.25.293 0 .532.08.716.24.184.16.276.36.276.6 0 .26-.092.477-.276.65-.184.167-.423.25-.716.25zm5.596 5.873c-.157.113-.352.2-.584.26a3.05 3.05 0 01-.706.08c-.662 0-1.17-.163-1.525-.49-.355-.327-.532-.807-.532-1.441v-4.723h1.596v1.31h1.362v1.202h-1.362v2.191c0 .227.058.404.174.53.116.12.283.18.502.18.246 0 .464-.066.655-.2l.42 1.101zm6.319-5.123v5.383h-1.525v-.62c-.395.467-.969.7-1.72.7a2.94 2.94 0 01-1.411-.34 2.474 2.474 0 01-.983-.97c-.239-.42-.358-.908-.358-1.461 0-.554.12-1.041.358-1.461a2.48 2.48 0 01.983-.971 2.94 2.94 0 011.412-.34c.703 0 1.252.217 1.647.65v-.57h1.597zM89.75 33.82c.403 0 .737-.133 1.003-.4.266-.273.4-.637.4-1.09 0-.454-.134-.814-.4-1.081a1.34 1.34 0 00-1.003-.41c-.41 0-.747.136-1.013.41-.266.267-.4.627-.4 1.08 0 .454.134.818.4 1.091.266.267.604.4 1.013.4zm6.421 1.281c-.62 0-1.105-.16-1.453-.48-.348-.327-.522-.787-.522-1.38v-5.644h1.596v5.553c0 .227.058.404.174.53.123.12.294.18.512.18.082 0 .164-.01.246-.03a.788.788 0 00.204-.07L97 34.971c-.266.087-.542.13-.829.13zM15.072 13.827l.1.117c.21.247.434.516.679.804.12.144.248.292.376.443.647.762 1.38 1.626 2.151 2.528l.934 1.096.946 1.106.058.069c.144.166.283.333.427.496.023.027.046.057.073.084.113.128.221.257.33.386l.21.246.057.069c.043.053.09.102.132.155l.163.193c.023.03.05.057.074.087.066.076.131.156.197.232.047.053.09.106.136.159l.163.193c.046.057.097.11.143.167.024.026.047.057.074.083.074.088.147.175.22.258l.07.08c.043.053.09.102.132.151.047.053.09.106.136.16l.066.075c.271.315.523.614.764.891l.035.038.209.242.112.133.05.06c.117.133.222.259.326.38l.353.41c.031.037.058.067.085.102l.004.003.295.345.004.004c.038.045.077.087.108.125.008.008.016.011.024.019.042.03.112.034.155 0 .007-.008.015-.011.023-.019.027-.03.058-.068.093-.106.023-.03.05-.06.077-.091l.206-.239c.027-.03.05-.057.074-.087.007-.008.011-.015.019-.023l.124-.144c0-.004.004-.004.004-.004l.112-.132c.027-.034.058-.069.09-.106.108-.13.224-.262.348-.41a.645.645 0 01.05-.057c.051-.06.11-.125.163-.19.05-.056.101-.117.152-.177l.554-.648c.039-.042.074-.087.112-.13l.04-.045c.053-.064.112-.129.166-.197l.178-.208.105-.122.046-.053c.082-.098.167-.197.252-.295l.066-.076c.027-.03.055-.06.078-.091.21-.243.422-.493.64-.75.05-.061.104-.122.154-.182.008-.008.016-.02.024-.027.066-.08.135-.16.205-.239.058-.064.113-.132.17-.197a35.287 35.287 0 00.423-.496l.419-.49c.02-.018.035-.04.054-.06.314-.367.628-.739.946-1.107l.934-1.095 2.152-2.528.376-.444c.244-.287.469-.557.678-.803.035-.042.062-.076.097-.114a15.72 15.72 0 00-10.482-3.968c-4.047 0-7.726 1.5-10.493 3.96zm14.958 18.53a.475.475 0 00-.72.114l-2.365 4.017-.586.99a.609.609 0 01-.523.295h-.558a.61.61 0 01-.527-.3l-.004-.003-2.947-5.007a.477.477 0 00-.72-.114l-2.198 1.918-3.055 2.668a15.71 15.71 0 009.726 3.34 15.71 15.71 0 009.73-3.343l-1.175-1.028-4.078-3.547zm-16.629-8.699a2681.068 2681.068 0 01-2.407-3.957 14.848 14.848 0 00-1.004 5.375c0 2.07.422 4.037 1.19 5.833l.593-.709 3.186-3.809c.004-.004.031-.034.066-.08a289.836 289.836 0 01-1.624-2.653z" fill="#000"/><path d="M25.584 0C11.454 0 0 11.192 0 25s11.455 25 25.584 25c14.13 0 25.585-11.192 25.585-25S39.714 0 25.585 0zm20.003 38.182h-8.838a.14.14 0 01-.04-.007l-.007.007-.004-.004a17.622 17.622 0 01-11.145 3.935 17.603 17.603 0 01-11.14-3.934h-.004l-.008-.008c-.012.004-.023.008-.039.008H5.524c-.175 0-.268-.198-.159-.327L9.85 32.49a16.652 16.652 0 01-1.737-7.42c0-9.412 7.808-17.041 17.44-17.041 9.633 0 17.44 7.63 17.44 17.04 0 2.657-.624 5.174-1.732 7.418l1.701 2.031 2.784 3.328.008.008c.1.132.007.33-.167.33z" fill="#000"/><path d="M39.97 19.944c-.71 1.164-1.543 2.54-2.257 3.71l-1.608 2.642-.012.012.058.072c.004.003.004.007.008.011l3.772 4.51a14.857 14.857 0 001.186-5.829c0-1.891-.357-3.7-1-5.367-.05.08-.097.16-.148.239z" fill="#000"/></svg>
